X:1
T:[ID 5-52]
T:[ID 5-52]
T:Bezeichnung standardisiert: Damny Lisette; Le Duc de Richelieu; Damny Lisette [mit Trio] 22 In dieser Quelle auch als: Le Duc de Richelieu In anderer Quelle: Nom 10, Trio  - Hs aus Wernigerode 1786 (Hinw. Th. Behr);
T:Urheber unbekannt Datum in der hier transkribierten schriftlichen Quelle: 1775
C:Urheber unbekannt
C:Datum in der hier transkribierten schriftlichen Quelle: 1775
L:1/8
M:2/4
K:G
V:1 treble 
V:1
 A/G/A/B/ cA | BdfA | BG/A/ BG | AECA, | A/G/A/B/ cA | Befg | eB/A/ AF | G4 :: cA/B/ cA | BGEC | %10
 BG/A/ BG | AECA, | CA/B/ cA | BefB | AD/C/ DB, | C2 C2 :| %16
[K:Amin][M:2/4]"^Trio" !fermata!A/G/A/B/ cB"^[Notat bricht ab]" | x4 | %18

